X: 10260
T: Doctor O'Connor
R: jig
M: 6/8
K: Dmajor
|:d3 dec|dec d2e|f3 fgf|fgf f2g|
a3 A3|g3 G3|f3 F3|e3 cec|
A2d c2e|d2f c2e|f2a bag|fed e3|
d2A d3|e2A e3|fed g2e|a2f d3||
|:B3 Bcd|ecA A3|e3 efe|efe fga|
fed d3|fed a2f|gfe B2e|cBA A3|
AFD AFD|A3 d3|Td3 BGd|BGd edc|
def efg|fga bag|fed cAc|d3 d3||

